X:1
T:Croxley Green, 88.86
T:Croxley Green, 88.86
T:Edward A. Freeman, 1895
T:Public Domain Courtesy of the Cyber Hymnal™
C:Edward A. Freeman, 1895
Z:Public Domain
Z:Courtesy of the Cyber Hymnal™
%%score ( 1 2 ) ( 3 4 )
L:1/8
Q:1/4=110
M:3/4
K:G
V:1 treble 
V:2 treble 
V:3 bass 
V:4 bass 
V:1
 [EG]2 [EG]2 [^DB]2 | A4 [EG]2 | [Dd]4 [GA]2 | [FA]6 | [FA]2 [FA]2 [GB]2 | [Fc]4 [GB]2 | %6
 [GB]4 [FA]2 | [DG]6 | [DA]2 [GA]2 [FA]2 | [EA]4 [DA]2 | [GB]4 [GB]2 | [FA]4 (BA) | [EG]4 [CE]2 | %13
 D4 [DA]2 | [DG]6 |] %15
V:2
 x6 | (^D2 F2) x2 | x6 | x6 | x6 | x6 | x6 | x6 | x6 | x6 | x6 | x4 F2 | x6 | (C2 A,2) x2 | x6 |] %15
V:3
 [G,B,]2 [E,B,]2 [B,,B,]2 | B,4 [E,B,]2 | [G,B,]4 [^C,E]2 | [D,D]6 | D2 [CD]2 [B,D]2 | %5
 [A,D]4 [G,D]2 | [D,D]4 [D,C]2 | [G,B,]6 | [F,D]2 [E,^C]2 [F,D]2 | [G,^C]4 [F,D]2 | %10
 [G,D]4 [B,,D]2 | [D,D]4 (DC) | [E,B,]4 [C,G,]2 | [D,F,]4 [D,C]2 | [G,,G,B,]6 |] %15
V:4
 x6 | (B,,2 ^D,2) x2 | x6 | x6 | D2 x4 | x6 | x6 | x6 | x6 | x6 | x6 | x4 D,2 | x6 | x6 | x6 |] %15

